; generated by PrusaSlicer 2.7.1+win64 on 2024-02-22 at 10:22:52 UTC


;
;
; 

; external perimeters extrusion width = 0.60mm
; perimeters extrusion width = 0.50mm
; infill extrusion width = 0.50mm
; solid infill extrusion width = 0.50mm
; top infill extrusion width = 0.45mm
; support material extrusion width = 0.38mm
; first layer extrusion width = 0.42mm

M73 P0 R166
M73 Q0 S168
M201 X1000 Y1000 Z200 E5000 ; sets maximum accelerations, mm/sec^2
M203 X200 Y200 Z12 E120 ; sets maximum feedrates, mm / sec
M204 S1250 T1250 ; sets acceleration (S) and retract acceleration (R), mm/sec^2
M205 X8.00 Y8.00 Z0.40 E4.50 ; sets the jerk limits, mm/sec
M205 S0 T0 ; sets the minimum extruding and travel feed rate, mm/sec

; printing object Spacer id:0 copy 0
; stop printing object Spacer id:0 copy 0

;TYPE:Custom
M862.3 P "MK3S" ; printer model check
M862.1 P0.4 ; nozzle diameter check
M115 U3.13.2 ; tell printer latest fw version
G90 ; use absolute coordinates
M83 ; extruder relative mode
M104 S220 ; set extruder temp
M140 S60 ; set bed temp
M190 S60 ; wait for bed temp
M109 S220 ; wait for extruder temp
G28 W ; home all without mesh bed level
G80 X38.4344 Y13.8088 W177.757 H177.757 ; mesh bed levelling

G1 Z0.2 F720
G1 Y-3 F1000 ; go outside print area
G92 E0
G1 X60 E9 F1000 ; intro line
G1 X100 E12.5 F1000 ; intro line

G92 E0
M221 S95

; Don't change E values below. Excessive value can damage the printer.

M907 E538 ; set extruder motor current
G21 ; set units to millimeters
G90 ; use absolute coordinates
M83 ; use relative distances for extrusion

M900 K0.05 ; Filament gcode LA 1.5
M900 K30 ; Filament gcode LA 1.0




M107
;LAYER_CHANGE
;Z:0.2
;HEIGHT:0.2
;BEFORE_LAYER_CHANGE
G92 E0.0
;0.2


G1 E-.8 F2100
G1 Z.2 F720
;AFTER_LAYER_CHANGE
;0.2
G1 X46.885 Y35.86 F10800
G1 Z.2 F720
G1 E.8 F2100
M204 S800
;TYPE:Skirt/Brim
;WIDTH:0.42
G1 F1200
G1 X48.113 Y34.274 E.06289
G1 X50.177 Y31.927 E.098
G1 X52.571 Y29.576 E.1052
G1 X55.537 Y27.126 E.12062
G1 X81.638 Y14.241 E.91267
G1 X82.687 Y13.997 E.03377
G1 X167.313 Y13.997 E2.65339
G1 X168.362 Y14.241 E.03377
M73 P0 R165
G1 X194.049 Y26.867 E.89743
G1 X196.277 Y28.574 E.088
G1 X199.129 Y31.2 E.12156
G1 X201.654 Y33.991 E.11801
G1 X203.133 Y35.951 E.07699
G1 X215.759 Y61.638 E.89743
G1 X216.003 Y62.687 E.03377
G1 X216.003 Y147.313 E2.65339
G1 X215.759 Y148.362 E.03377
G1 X202.874 Y174.463 E.91267
G1 X201.617 Y176.054 E.06358
M73 Q0 S167
G1 X199.917 Y177.98 E.08055
G1 X198.57 Y179.354 E.06033
G1 X196.67 Y181.085 E.08059
G1 X194.354 Y182.955 E.09333
G1 X192.579 Y184.21 E.06816
G1 X190.709 Y185.394 E.0694
G1 X188.885 Y186.422 E.06565
G1 X187.046 Y187.342 E.06447
G1 X185.094 Y188.202 E.06688
G1 X183.144 Y188.947 E.06545
G1 X181 Y189.641 E.07066
G1 X179.033 Y190.171 E.06387
G1 X175.64 Y190.848 E.10848
G1 X173.161 Y191.172 E.07839
G1 X171.19 Y191.319 E.06197
G1 X169 Y191.377 E.06869
G1 X78.936 Y191.326 E2.82389
G1 X75.078 Y190.961 E.12151
G1 X72.998 Y190.615 E.06611
G1 X70.558 Y190.065 E.07842
G1 X67.311 Y189.104 E.10617
G1 X65.249 Y188.341 E.06894
G1 X63.039 Y187.378 E.07559
G1 X60.03 Y185.823 E.1062
G1 X58.11 Y184.663 E.07033
G1 X56.327 Y183.452 E.06758
G1 X54.266 Y181.877 E.08133
G1 X52.224 Y180.105 E.08477
G1 X50.397 Y178.312 E.08026
G1 X48.896 Y176.659 E.07001
G1 X47.292 Y174.679 E.0799
G1 X45.539 Y172.196 E.0953
G1 X44.484 Y170.497 E.06271
G1 X43.329 Y168.408 E.07484
G1 X42.451 Y166.6 E.06302
G1 X41.645 Y164.715 E.06428
G1 X40.896 Y162.689 E.06773
G1 X40.295 Y160.782 E.06269
G1 X39.487 Y157.484 E.10646
G1 X39.052 Y155.017 E.07854
G1 X38.811 Y152.989 E.06403
G1 X38.623 Y149 E.12521
G1 X38.623 Y61 E2.75918
G1 X38.675 Y58.908 E.06561
G1 X38.882 Y56.379 E.07956
G1 X39.394 Y52.958 E.10846
G1 X39.878 Y50.764 E.07045
G1 X40.539 Y48.413 E.07657
G1 X41.7 Y45.154 E.10847
G1 X42.658 Y42.954 E.07524
G1 X43.689 Y40.911 E.07175
G1 X45.64 Y37.646 E.11926
G1 X46.851 Y35.91 E.06637
M204 S1000
; printing object Spacer id:0 copy 0
;WIPE_START
G1 F8640
G1 X46.885 Y35.86 E-.01396
G1 X48.113 Y34.274 E-.46315
G1 X49.037 Y33.224 E-.32289
;WIPE_END
G1 Z.6 F720
G1 X213.626 Y147.313 F10800
G1 Z.2 F720
G1 E.8 F2100
M204 S800
;TYPE:Support material
G1 F1200
G1 X201.57 Y147.313 E.37801
G1 X201.57 Y62.687 E2.65339
G1 X213.626 Y62.687 E.37801
G1 X213.626 Y147.257 E2.65163
M204 S1000
G1 X212.985 Y147.144 F10800
M204 S800
G1 F1200
G1 X212.985 Y63.026 E2.63746
G1 X212.566 Y63.026 E.01314
G1 X212.566 Y146.974 E2.63213
G1 X212.147 Y146.974 E.01314
G1 X212.147 Y63.026 E2.63213
G1 X211.728 Y63.026 E.01314
G1 X211.728 Y146.974 E2.63213
G1 X211.309 Y146.974 E.01314
G1 X211.309 Y63.026 E2.63213
G1 X210.89 Y63.026 E.01314
G1 X210.89 Y146.974 E2.63213
G1 X210.471 Y146.974 E.01314
M73 P0 R164
G1 X210.471 Y63.026 E2.63213
G1 X210.052 Y63.026 E.01314
G1 X210.052 Y146.974 E2.63213
G1 X209.633 Y146.974 E.01314
M73 Q0 S166
G1 X209.633 Y63.026 E2.63213
G1 X209.214 Y63.026 E.01314
G1 X209.214 Y146.974 E2.63213
G1 X208.795 Y146.974 E.01314
G1 X208.795 Y63.026 E2.63213
G1 X208.376 Y63.026 E.01314
G1 X208.376 Y146.974 E2.63213
G1 X207.957 Y146.974 E.01314
M73 P1 R164
G1 X207.957 Y63.026 E2.63213
G1 X207.538 Y63.026 E.01314
M73 Q1 S166
G1 X207.538 Y146.974 E2.63213
G1 X207.119 Y146.974 E.01314
G1 X207.119 Y63.026 E2.63213
G1 X206.701 Y63.026 E.01311
G1 X206.701 Y146.974 E2.63213
G1 X206.282 Y146.974 E.01314
G1 X206.282 Y63.026 E2.63213
G1 X205.863 Y63.026 E.01314
G1 X205.863 Y146.974 E2.63213
G1 X205.444 Y146.974 E.01314
G1 X205.444 Y63.026 E2.63213
G1 X205.025 Y63.026 E.01314
G1 X205.025 Y146.974 E2.63213
G1 X204.606 Y146.974 E.01314
M73 P1 R163
G1 X204.606 Y63.026 E2.63213
G1 X204.187 Y63.026 E.01314
G1 X204.187 Y146.974 E2.63213
G1 X203.768 Y146.974 E.01314
M73 Q1 S165
G1 X203.768 Y63.026 E2.63213
G1 X203.349 Y63.026 E.01314
G1 X203.349 Y146.974 E2.63213
G1 X202.93 Y146.974 E.01314
G1 X202.93 Y63.026 E2.63213
G1 X202.511 Y63.026 E.01314
G1 X202.511 Y146.974 E2.63213
G1 X202.092 Y146.974 E.01314
G1 X202.092 Y62.856 E2.63746
M204 S1000
;WIPE_START
G1 F8640
G1 X202.092 Y66.321 E-.8
;WIPE_END
G1 Z.6 F720
G1 X167.313 Y28.43 F10800
G1 Z.2 F720
G1 E.8 F2100
M204 S800
G1 F1200
G1 X82.687 Y28.43 E2.65339
G1 X82.687 Y16.374 E.37801
G1 X167.313 Y16.374 E2.65339
G1 X167.313 Y28.373 E.37622
M204 S1000
G1 X166.898 Y28.26 F10800
M204 S800
G1 F1200
G1 X166.898 Y16.714 E.36202
G1 X166.479 Y16.714 E.01314
G1 X166.479 Y28.091 E.35672
G1 X166.06 Y28.091 E.01314
G1 X166.06 Y16.714 E.35672
G1 X165.641 Y16.714 E.01314
G1 X165.641 Y28.091 E.35672
G1 X165.222 Y28.091 E.01314
G1 X165.222 Y16.714 E.35672
G1 X164.803 Y16.714 E.01314
G1 X164.803 Y28.091 E.35672
G1 X164.384 Y28.091 E.01314
G1 X164.384 Y16.714 E.35672
G1 X163.965 Y16.714 E.01314
G1 X163.965 Y28.091 E.35672
G1 X163.546 Y28.091 E.01314
G1 X163.546 Y16.714 E.35672
G1 X163.127 Y16.714 E.01314
G1 X163.127 Y28.091 E.35672
G1 X162.708 Y28.091 E.01314
G1 X162.708 Y16.714 E.35672
G1 X162.289 Y16.714 E.01314
G1 X162.289 Y28.091 E.35672
G1 X161.87 Y28.091 E.01314
G1 X161.87 Y16.714 E.35672
G1 X161.451 Y16.714 E.01314
G1 X161.451 Y28.091 E.35672
G1 X161.032 Y28.091 E.01314
G1 X161.032 Y16.714 E.35672
G1 X160.613 Y16.714 E.01314
G1 X160.613 Y28.091 E.35672
G1 X160.194 Y28.091 E.01314
G1 X160.194 Y16.714 E.35672
G1 X159.775 Y16.714 E.01314
G1 X159.775 Y28.091 E.35672
G1 X159.356 Y28.091 E.01314
G1 X159.356 Y16.714 E.35672
G1 X158.937 Y16.714 E.01314
G1 X158.937 Y28.091 E.35672
G1 X158.518 Y28.091 E.01314
G1 X158.518 Y16.714 E.35672
G1 X158.099 Y16.714 E.01314
G1 X158.099 Y28.091 E.35672
G1 X157.68 Y28.091 E.01314
G1 X157.68 Y16.714 E.35672
G1 X157.261 Y16.714 E.01314
G1 X157.261 Y28.091 E.35672
G1 X156.842 Y28.091 E.01314
G1 X156.842 Y16.714 E.35672
G1 X156.423 Y16.714 E.01314
G1 X156.423 Y28.091 E.35672
G1 X156.004 Y28.091 E.01314
G1 X156.004 Y16.714 E.35672
G1 X155.585 Y16.714 E.01314
G1 X155.585 Y28.091 E.35672
G1 X155.166 Y28.091 E.01314
M73 P1 R162
G1 X155.166 Y16.714 E.35672
G1 X154.747 Y16.714 E.01314
G1 X154.747 Y28.091 E.35672
G1 X154.328 Y28.091 E.01314
G1 X154.328 Y16.714 E.35672
G1 X153.909 Y16.714 E.01314
G1 X153.909 Y28.091 E.35672
G1 X153.49 Y28.091 E.01314
G1 X153.49 Y16.714 E.35672
G1 X153.071 Y16.714 E.01314
G1 X153.071 Y28.091 E.35672
G1 X152.652 Y28.091 E.01314
G1 X152.652 Y16.714 E.35672
G1 X152.234 Y16.714 E.01311
G1 X152.234 Y28.091 E.35672
G1 X151.815 Y28.091 E.01314
G1 X151.815 Y16.714 E.35672
G1 X151.396 Y16.714 E.01314
G1 X151.396 Y28.091 E.35672
G1 X150.977 Y28.091 E.01314
G1 X150.977 Y16.714 E.35672
G1 X150.558 Y16.714 E.01314
G1 X150.558 Y28.091 E.35672
G1 X150.139 Y28.091 E.01314
G1 X150.139 Y16.714 E.35672
G1 X149.72 Y16.714 E.01314
G1 X149.72 Y28.091 E.35672
G1 X149.301 Y28.091 E.01314
M73 P2 R162
G1 X149.301 Y16.714 E.35672
G1 X148.882 Y16.714 E.01314
G1 X148.882 Y28.091 E.35672
G1 X148.463 Y28.091 E.01314
G1 X148.463 Y16.714 E.35672
G1 X148.044 Y16.714 E.01314
M73 Q2 S164
G1 X148.044 Y28.091 E.35672
G1 X147.625 Y28.091 E.01314
G1 X147.625 Y16.714 E.35672
G1 X147.206 Y16.714 E.01314
G1 X147.206 Y28.091 E.35672
G1 X146.787 Y28.091 E.01314
G1 X146.787 Y16.714 E.35672
G1 X146.368 Y16.714 E.01314
G1 X146.368 Y28.091 E.35672
G1 X145.949 Y28.091 E.01314
G1 X145.949 Y16.714 E.35672
G1 X145.53 Y16.714 E.01314
G1 X145.53 Y28.091 E.35672
G1 X145.111 Y28.091 E.01314
G1 X145.111 Y16.714 E.35672
G1 X144.692 Y16.714 E.01314
G1 X144.692 Y28.091 E.35672
G1 X144.273 Y28.091 E.01314
G1 X144.273 Y16.714 E.35672
G1 X143.854 Y16.714 E.01314
G1 X143.854 Y28.091 E.35672
G1 X143.435 Y28.091 E.01314
G1 X143.435 Y16.714 E.35672
G1 X143.016 Y16.714 E.01314
G1 X143.016 Y28.091 E.35672
G1 X142.597 Y28.091 E.01314
G1 X142.597 Y16.714 E.35672
G1 X142.178 Y16.714 E.01314
G1 X142.178 Y28.091 E.35672
G1 X141.759 Y28.091 E.01314
G1 X141.759 Y16.714 E.35672
G1 X141.34 Y16.714 E.01314
G1 X141.34 Y28.091 E.35672
G1 X140.921 Y28.091 E.01314
G1 X140.921 Y16.714 E.35672
G1 X140.502 Y16.714 E.01314
G1 X140.502 Y28.091 E.35672
G1 X140.083 Y28.091 E.01314
G1 X140.083 Y16.714 E.35672
G1 X139.664 Y16.714 E.01314
G1 X139.664 Y28.091 E.35672
G1 X139.245 Y28.091 E.01314
G1 X139.245 Y16.714 E.35672
G1 X138.826 Y16.714 E.01314
G1 X138.826 Y28.091 E.35672
G1 X138.407 Y28.091 E.01314
G1 X138.407 Y16.714 E.35672
G1 X137.988 Y16.714 E.01314
G1 X137.988 Y28.091 E.35672
G1 X137.569 Y28.091 E.01314
G1 X137.569 Y16.714 E.35672
G1 X137.15 Y16.714 E.01314
G1 X137.15 Y28.091 E.35672
G1 X136.731 Y28.091 E.01314
G1 X136.731 Y16.714 E.35672
G1 X136.312 Y16.714 E.01314
G1 X136.312 Y28.091 E.35672
G1 X135.893 Y28.091 E.01314
G1 X135.893 Y16.714 E.35672
G1 X135.474 Y16.714 E.01314
G1 X135.474 Y28.091 E.35672
G1 X135.055 Y28.091 E.01314
G1 X135.055 Y16.714 E.35672
G1 X134.636 Y16.714 E.01314
G1 X134.636 Y28.091 E.35672
G1 X134.217 Y28.091 E.01314
G1 X134.217 Y16.714 E.35672
G1 X133.799 Y16.714 E.01311
G1 X133.799 Y28.091 E.35672
G1 X133.38 Y28.091 E.01314
G1 X133.38 Y16.714 E.35672
G1 X132.961 Y16.714 E.01314
G1 X132.961 Y28.091 E.35672
G1 X132.542 Y28.091 E.01314
G1 X132.542 Y16.714 E.35672
G1 X132.123 Y16.714 E.01314
G1 X132.123 Y28.091 E.35672
G1 X131.704 Y28.091 E.01314
G1 X131.704 Y16.714 E.35672
G1 X131.285 Y16.714 E.01314
G1 X131.285 Y28.091 E.35672
G1 X130.866 Y28.091 E.01314
G1 X130.866 Y16.714 E.35672
G1 X130.447 Y16.714 E.01314
G1 X130.447 Y28.091 E.35672
G1 X130.028 Y28.091 E.01314
G1 X130.028 Y16.714 E.35672
G1 X129.609 Y16.714 E.01314
G1 X129.609 Y28.091 E.35672
G1 X129.19 Y28.091 E.01314
G1 X129.19 Y16.714 E.35672
G1 X128.771 Y16.714 E.01314
G1 X128.771 Y28.091 E.35672
G1 X128.352 Y28.091 E.01314
G1 X128.352 Y16.714 E.35672
G1 X127.933 Y16.714 E.01314
G1 X127.933 Y28.091 E.35672
G1 X127.514 Y28.091 E.01314
G1 X127.514 Y16.714 E.35672
G1 X127.095 Y16.714 E.01314
G1 X127.095 Y28.091 E.35672
G1 X126.676 Y28.091 E.01314
G1 X126.676 Y16.714 E.35672
G1 X126.257 Y16.714 E.01314
G1 X126.257 Y28.091 E.35672
G1 X125.838 Y28.091 E.01314
G1 X125.838 Y16.714 E.35672
G1 X125.419 Y16.714 E.01314
G1 X125.419 Y28.091 E.35672
G1 X125 Y28.091 E.01314
G1 X125 Y16.714 E.35672
G1 X124.581 Y16.714 E.01314
G1 X124.581 Y28.091 E.35672
G1 X124.162 Y28.091 E.01314
G1 X124.162 Y16.714 E.35672
G1 X123.743 Y16.714 E.01314
G1 X123.743 Y28.091 E.35672
G1 X123.324 Y28.091 E.01314
G1 X123.324 Y16.714 E.35672
G1 X122.905 Y16.714 E.01314
G1 X122.905 Y28.091 E.35672
G1 X122.486 Y28.091 E.01314
G1 X122.486 Y16.714 E.35672
G1 X122.067 Y16.714 E.01314
G1 X122.067 Y28.091 E.35672
G1 X121.648 Y28.091 E.01314
G1 X121.648 Y16.714 E.35672
G1 X121.229 Y16.714 E.01314
G1 X121.229 Y28.091 E.35672
G1 X120.81 Y28.091 E.01314
G1 X120.81 Y16.714 E.35672
G1 X120.391 Y16.714 E.01314
G1 X120.391 Y28.091 E.35672
G1 X119.972 Y28.091 E.01314
G1 X119.972 Y16.714 E.35672
G1 X119.553 Y16.714 E.01314
G1 X119.553 Y28.091 E.35672
G1 X119.134 Y28.091 E.01314
G1 X119.134 Y16.714 E.35672
G1 X118.715 Y16.714 E.01314
G1 X118.715 Y28.091 E.35672
G1 X118.296 Y28.091 E.01314
G1 X118.296 Y16.714 E.35672
G1 X117.877 Y16.714 E.01314
G1 X117.877 Y28.091 E.35672
G1 X117.458 Y28.091 E.01314
G1 X117.458 Y16.714 E.35672
G1 X117.039 Y16.714 E.01314
G1 X117.039 Y28.091 E.35672
G1 X116.62 Y28.091 E.01314
G1 X116.62 Y16.714 E.35672
G1 X116.201 Y16.714 E.01314
G1 X116.201 Y28.091 E.35672
G1 X115.783 Y28.091 E.01311
G1 X115.783 Y16.714 E.35672
G1 X115.364 Y16.714 E.01314
G1 X115.364 Y28.091 E.35672
G1 X114.945 Y28.091 E.01314
G1 X114.945 Y16.714 E.35672
G1 X114.526 Y16.714 E.01314
G1 X114.526 Y28.091 E.35672
G1 X114.107 Y28.091 E.01314
G1 X114.107 Y16.714 E.35672
G1 X113.688 Y16.714 E.01314
M73 P2 R161
G1 X113.688 Y28.091 E.35672
G1 X113.269 Y28.091 E.01314
G1 X113.269 Y16.714 E.35672
G1 X112.85 Y16.714 E.01314
G1 X112.85 Y28.091 E.35672
G1 X112.431 Y28.091 E.01314
G1 X112.431 Y16.714 E.35672
G1 X112.012 Y16.714 E.01314
G1 X112.012 Y28.091 E.35672
G1 X111.593 Y28.091 E.01314
G1 X111.593 Y16.714 E.35672
G1 X111.174 Y16.714 E.01314
G1 X111.174 Y28.091 E.35672
G1 X110.755 Y28.091 E.01314
G1 X110.755 Y16.714 E.35672
G1 X110.336 Y16.714 E.01314
G1 X110.336 Y28.091 E.35672
G1 X109.917 Y28.091 E.01314
G1 X109.917 Y16.714 E.35672
G1 X109.498 Y16.714 E.01314
G1 X109.498 Y28.091 E.35672
G1 X109.079 Y28.091 E.01314
G1 X109.079 Y16.714 E.35672
G1 X108.66 Y16.714 E.01314
G1 X108.66 Y28.091 E.35672
G1 X108.241 Y28.091 E.01314
G1 X108.241 Y16.714 E.35672
G1 X107.822 Y16.714 E.01314
G1 X107.822 Y28.091 E.35672
G1 X107.403 Y28.091 E.01314
G1 X107.403 Y16.714 E.35672
G1 X106.984 Y16.714 E.01314
G1 X106.984 Y28.091 E.35672
G1 X106.565 Y28.091 E.01314
M73 Q2 S163
G1 X106.565 Y16.714 E.35672
G1 X106.146 Y16.714 E.01314
G1 X106.146 Y28.091 E.35672
G1 X105.727 Y28.091 E.01314
G1 X105.727 Y16.714 E.35672
G1 X105.308 Y16.714 E.01314
G1 X105.308 Y28.091 E.35672
G1 X104.889 Y28.091 E.01314
G1 X104.889 Y16.714 E.35672
G1 X104.47 Y16.714 E.01314
G1 X104.47 Y28.091 E.35672
G1 X104.051 Y28.091 E.01314
G1 X104.051 Y16.714 E.35672
G1 X103.632 Y16.714 E.01314
G1 X103.632 Y28.091 E.35672
G1 X103.213 Y28.091 E.01314
G1 X103.213 Y16.714 E.35672
G1 X102.794 Y16.714 E.01314
G1 X102.794 Y28.091 E.35672
G1 X102.375 Y28.091 E.01314
G1 X102.375 Y16.714 E.35672
G1 X101.956 Y16.714 E.01314
G1 X101.956 Y28.091 E.35672
G1 X101.537 Y28.091 E.01314
G1 X101.537 Y16.714 E.35672
G1 X101.118 Y16.714 E.01314
G1 X101.118 Y28.091 E.35672
G1 X100.699 Y28.091 E.01314
G1 X100.699 Y16.714 E.35672
G1 X100.28 Y16.714 E.01314
G1 X100.28 Y28.091 E.35672
G1 X99.861 Y28.091 E.01314
G1 X99.861 Y16.714 E.35672
G1 X99.442 Y16.714 E.01314
G1 X99.442 Y28.091 E.35672
G1 X99.023 Y28.091 E.01314
G1 X99.023 Y16.714 E.35672
G1 X98.604 Y16.714 E.01314
G1 X98.604 Y28.091 E.35672
G1 X98.185 Y28.091 E.01314
G1 X98.185 Y16.714 E.35672
G1 X97.766 Y16.714 E.01314
G1 X97.766 Y28.091 E.35672
G1 X97.348 Y28.091 E.01311
G1 X97.348 Y16.714 E.35672
G1 X96.929 Y16.714 E.01314
G1 X96.929 Y28.091 E.35672
G1 X96.51 Y28.091 E.01314
G1 X96.51 Y16.714 E.35672
G1 X96.091 Y16.714 E.01314
G1 X96.091 Y28.091 E.35672
G1 X95.672 Y28.091 E.01314
G1 X95.672 Y16.714 E.35672
G1 X95.253 Y16.714 E.01314
G1 X95.253 Y28.091 E.35672
G1 X94.834 Y28.091 E.01314
G1 X94.834 Y16.714 E.35672
G1 X94.415 Y16.714 E.01314
G1 X94.415 Y28.091 E.35672
G1 X93.996 Y28.091 E.01314
G1 X93.996 Y16.714 E.35672
